X:1
T:Title
%%score { ( 1 4 5 ) | ( 2 3 6 ) }
L:1/8
M:3/4
K:Ab
V:1 treble nm="Grand Piano"
V:4 treble 
V:5 treble 
V:2 bass 
V:3 bass 
V:6 bass 
V:1
 z2 z2[Q:1/4=100] EC | [CA]3 B [Ec]d | [Ec]2 [DB]2 BA | [B,G]3 G [CA]B |[M:2/4] [CA]4[K:bass] | %5
[M:1/4][K:treble] EC |[M:3/4] [CA]3 B [Ec]d | [Ec]2 [DB]2 BA | [B,G]3 A [B,G]F |[M:2/4] [G,E]4 | %10
[M:1/4] z2 |[M:3/4] [Bd]3 c [Bd]c | [Bd]2 [GB]2 z2 | [Ac]3 d [ce]=d |[M:2/4] [ce]4 |[M:1/4] z2 | %16
[M:3/4] CD EB cd | e2 E2 EE | z A, z d cB | [CA]4[K:bass] z2 |[M:2/4][K:treble] c2 e2 | %21
 e2 [Ec]>[DB] | [CA]2 [DA]2 | [CA]2 z2 | c2 e2 | e2 d>c | B2 B2 | B2 z2 | [=Ec]2 [EB]2 | A2 A>B | %30
 [FA]2 F2 | E2 z2 | [Ec]3 [Ed] | [Ee]3 [Fd] | [Ec]2 [DB]2 |[M:3/8] [CA]3 |] %36
V:2
 z2 z2 CA, | z2 z2[K:treble] A,2 | E,E, .E,2 DC | E,,E, E,B, z D |[M:2/4] [A,,E,]A,, .A,,2 | %5
[M:1/4] CA, |[M:3/4] z2 z2[K:treble] A,2 | E,E, .E,2 DC | E,,G,, B,,C z A, |[M:2/4] E,B,, .E,,2 | %10
[M:1/4] EE |[M:3/4] E,,E, E,[K:treble]=A z A | E,,E, .E,2 EE | A,,A, A,[K:treble]B z _c | %14
[M:2/4][K:bass] A,,A, .A,2 |[M:1/4] EE |[M:3/4] A,,B,, C,[E,G,E] [A,E][A,B,E] | %17
 [A,CE]2 [A,C]2 [C,A,][C,A,] | D4 z2 | A,,A,, .A,,2 z2 |[M:2/4] [A,E]2 [A,CE]2 | %21
 [A,CE]2 [A,,A,]>[A,,A,] | [A,,E,]2 [D,F,]2 | [A,,E,]2 z2 | [A,E]2 [A,CE]2 | %25
 [A,CE]2 [A,B,E]>[A,E] | [G,B,E]2 [F,A,=D]2 | [E,G,E]2 z2 | [C,G,]2 [C,C]2 | %29
 [F,CF]2 [F,CF]>[F,CF] | [D,D]2 [D,A,D]2 | [A,C]2 z2 | [A,,A,]3 [B,,G,] | [C,A,]3 [D,A,] | %34
 [E,A,]2 [E,G,]2 |[M:3/8] [A,,A,]3 |] %36
V:3
 x6 | A,,E, A,,[K:treble]D z F | x6 | z2 z2 E,2 |[M:2/4] x4 |[M:1/4] x2 | %6
[M:3/4] A,,E, A,,[K:treble]D z F | x6 | z2 z2 B,,2 |[M:2/4] x4 |[M:1/4] x2 | %11
[M:3/4] z2 z2[K:treble] E,2 | x6 | z2 z2[K:treble] A,2 |[M:2/4][K:bass] x4 |[M:1/4] x2 | %16
[M:3/4] x6 | x6 | [D,A,]D, z F ED | x6 |[M:2/4] x4 | x4 | x4 | x4 | x4 | x4 | x4 | x4 | x4 | x4 | %30
 x4 | x4 | x4 | x4 | x4 |[M:3/8] x3 |] %36
V:4
 x6 | x6 | x6 | x6 |[M:2/4] z[K:bass] E, .E,2 |[M:1/4][K:treble] x2 |[M:3/4] x6 | x6 | x6 | %9
[M:2/4] x4 |[M:1/4] x2 |[M:3/4] x6 | x6 | x6 |[M:2/4] x4 |[M:1/4] x2 |[M:3/4] [A,A]4 z2 | x6 | %18
 F4 z2 | A,[K:bass]E, .E,2 z2 |[M:2/4][K:treble] x4 | x4 | x4 | x4 | x4 | x4 | x4 | x4 | x4 | x4 | %30
 x4 | x4 | x4 | x4 | x4 |[M:3/8] x3 |] %36
V:5
 x6 | x6 | x6 | x6 |[M:2/4] x[K:bass] x3 |[M:1/4][K:treble] x2 |[M:3/4] x6 | x6 | x6 |[M:2/4] x4 | %10
[M:1/4] x2 |[M:3/4] x6 | x6 | x6 |[M:2/4] x4 |[M:1/4] x2 |[M:3/4] x6 | x6 | z2 B,2 z2 | %19
 x[K:bass] x5 |[M:2/4][K:treble] x4 | x4 | x4 | x4 | x4 | x4 | x4 | x4 | x4 | x4 | x4 | x4 | x4 | %33
 x4 | x4 |[M:3/8] x3 |] %36
V:6
 x6 | x3[K:treble] x3 | x6 | x6 |[M:2/4] x4 |[M:1/4] x2 |[M:3/4] x3[K:treble] x3 | x6 | x6 | %9
[M:2/4] x4 |[M:1/4] x2 |[M:3/4] x3[K:treble] x3 | x6 | x3[K:treble] x3 |[M:2/4][K:bass] x4 | %15
[M:1/4] x2 |[M:3/4] x6 | x6 | z2 B,,2 [E,G,]2 | x6 |[M:2/4] x4 | x4 | x4 | x4 | x4 | x4 | x4 | x4 | %28
 x4 | x4 | x4 | x4 | x4 | x4 | x4 |[M:3/8] x3 |] %36

